X:1
T:The Highest Joy
T:The Highest Joy
T:Amanda Sandborg Waesterberg (1842-1918)
T:Nils Frykman, translated by Signe L. Bennett
T:Public Domain Courtesy of the Cyber Hymnal™
C:Amanda Sandborg Waesterberg (1842-1918)
Z:Public Domain
Z:Courtesy of the Cyber Hymnal™
%%score ( 1 2 ) ( 3 4 )
L:1/8
Q:1/4=107
M:3/4
K:F
V:1 treble 
V:2 treble 
V:3 bass 
V:4 bass 
V:1
 C | [CF][FA] [Ac]3 [FA] | [GB][EG] F3 F | [FB][Fc] [Fd]3 [FB] | [Fc]3 z2 [Ac] | %5
w: 1.~The|high- est joy that|can be known To|those who heav’n- ward|wend— It|
w: 2.~The|Word doth give me|wealth un- told, All|good it has in|store; My|
w: 3.~How|oft- en when in|deep des- pair My|soul has been re-|stored, And|
w: 4.~It|tells me of a|love di- vine, How|Je- sus’ blood was|shed; Each|
w: 5.~When|stars a- bove shall|shine no more God’s|Word is still my|light; When|
 [Be][Bd] [Gc]3 [GB] | [FA]C [CA]3 [FA] | [Fc][FB] [EG]3 C | [CF]3 z2 [Fd] | [Fd][Fd] [Fc]3 [Ff] | %10
w: is the Word of|Life to own, And|God to have as|friend; It|is the Word of|
w: deep- est sor- rows|lose their hold To|joys for- ev- er-|more; My|deep- est sor- rows|
w: when the tempt- er|would en- snare ’Twould|strength to stand af-|ford; And|when the tempt- er|
w: day this joy- ous|song is mine As|paths of grace I|tread; Each|day this joy- ous|
w: plea- sures of this|world are o’er, My|joys shall reach their|height; When|plea- sures of this|
 [GB][GB] [FA]3 [FA] | [FG][Fd] [Fc]3 [CE] | [CF]3 z2 |] %13
w: Life to own, And|God to have as|friend.|
w: loose their hold To|joys for- ev- er-|more.|
w: would en- snare ’Twould|strength to stand af-|ford.|
w: song is mine As|paths of grace I|tread.|
w: world are o’er, My|joys shall reach their|height.|
V:2
 C | x6 | x2 F3 F | x6 | x6 | x6 | x C x4 | x5 C | x6 | x6 | x6 | x6 | x5 |] %13
V:3
 [F,A,] | [F,A,][F,C] [F,C]3 [F,C] | [C,C][C,B,] [F,A,]3 [F,A,] | [D,B,][C,A,] [B,,B,]3 [D,B,] | %4
 [F,A,]3 z2 [F,C] | [G,C][G,C] [E,C]3 [E,C] | [F,C][F,A,] F,3 [F,C] | [A,,C][B,,D] [C,B,]3 [C,B,] | %8
 [F,,A,]3 z2 [F,B,] | [F,B,][F,B,] [F,A,]3 [D,D] | [E,C][E,C] [F,C]3 [F,C] | %11
 [B,,D][B,,B,] [C,A,]3 [C,B,] | [F,A,]3 z2 |] %13
V:4
 x | x6 | x6 | x6 | x6 | x6 | x2 F,3 x | x6 | x6 | x6 | x6 | x6 | x5 |] %13

